src/cmd/lc_insertrowsafter.svg

<svg viewBox="0 0 24 24" xmlns="http://www.w3.org/2000/svg"><path d="m4 4v5 1 4h1v-4h2v4h1v-4h2v4h1v-4h2v4h1v-4h2v4h1v-4h2v4h1v-4-1-4-1h-6-1-8zm1 1h2v4h-2zm3 0h2v4h-2zm3 0h2v4h-2zm3 0h2v4h-2zm3 0h2v4h-2zm0 10v2h-2v1h2v2h1v-2h2v-1h-2v-2z" fill="#232629"/><path d="m4 14v1 4 1h1 3 1.28125 2.71875 1 1v-1-2.28125-1.4375-.28125-1h-1-1-4-3zm1.71875 1h2.28125.28125l3.71875 3.71875.28125.28125h-.28125-2.28125zm4 0h2.28125.28125l.71875.71875v2.5625l-1-1zm-4.71875.71875 3.28125 3.28125h-.28125-3z" fill="#762572"/></svg>

<?xml version="1.0" encoding="UTF-8" standalone="no"?>
<svg
   xmlns:dc="http://purl.org/dc/elements/1.1/"
   xmlns:cc="http://creativecommons.org/ns#"
   xmlns:rdf="http://www.w3.org/1999/02/22-rdf-syntax-ns#"
   xmlns:svg="http://www.w3.org/2000/svg"
   xmlns="http://www.w3.org/2000/svg"
   xmlns:sodipodi="http://sodipodi.sourceforge.net/DTD/sodipodi-0.dtd"
   xmlns:inkscape="http://www.inkscape.org/namespaces/inkscape"
   viewBox="0 0 24 24"
   version="1.1"
   id="svg6"
   sodipodi:docname="lc_insertrowsafter.svg"
   inkscape:version="0.92.4 (5da689c313, 2019-01-14)">
  <metadata
     id="metadata12">
    <rdf:RDF>
      <cc:Work
         rdf:about="">
        <dc:format>image/svg+xml</dc:format>
        <dc:type
           rdf:resource="http://purl.org/dc/dcmitype/StillImage" />
      </cc:Work>
    </rdf:RDF>
  </metadata>
  <defs
     id="defs10" />
  <sodipodi:namedview
     pagecolor="#ffffff"
     bordercolor="#666666"
     borderopacity="1"
     objecttolerance="10"
     gridtolerance="10"
     guidetolerance="10"
     inkscape:pageopacity="0"
     inkscape:pageshadow="2"
     inkscape:window-width="1920"
     inkscape:window-height="1011"
     id="namedview8"
     showgrid="true"
     inkscape:zoom="27.812867"
     inkscape:cx="9.5359518"
     inkscape:cy="10.035956"
     inkscape:window-x="1920"
     inkscape:window-y="32"
     inkscape:window-maximized="1"
     inkscape:current-layer="svg6">
    <inkscape:grid
       type="xygrid"
       id="grid822" />
  </sodipodi:namedview>
  <path
     d="m 4,6 v 3 1 4 h 1 v -4 h 2 v 4 h 1 v -4 h 2 v 4 h 1 v -4 h 2 v 4 h 1 v -4 h 2 v 4 h 1 v -4 h 2 v 4 h 1 V 10 9 6 C 20,4 19,4 17,4 H 14 13 7 C 5,4 4,4 4,6 Z M 5,6 C 5,5.0561103 6,5 7,5 V 9 H 5 Z M 8,5 h 2 V 9 H 8 Z m 3,0 h 2 v 4 h -2 z m 3,0 h 2 v 4 h -2 z m 3,0 c 1,0 2,0 2,1 v 3 h -2 z m 0,10 v 2 h -2 v 1 h 2 v 2 h 1 v -2 h 2 v -1 h -2 v -2 z"
     id="path2"
     inkscape:connector-curvature="0"
     style="fill:#232629"
     sodipodi:nodetypes="ccccccccccccccccccccccccccccccccccccccccccccccccccccccccccccccccccccccc" />
  <path
     d="m 4,14 v 1 3 c 0,2 1,2 3,2 H 9.28125 12 13 14 V 19 16.71875 15.28125 15 14 H 13 12 8 5 Z m 1.71875,1 H 8 8.28125 L 12,18.71875 12.28125,19 H 12 9.71875 Z m 4,0 H 12 12.28125 L 13,15.71875 v 2.5625 l -1,-1 z M 5,15.71875 8.28125,19 H 7 C 6,19 5,19 5,18 Z"
     id="path4"
     inkscape:connector-curvature="0"
     style="fill:#762572"
     sodipodi:nodetypes="cccccccccccccccccccccccccccccccccccccc" />
</svg>
